!!!COM:	Josquin des Prez
!!!CDT:	~1450-1521/08/27
!!!OPR:	Missa Sine nomine
!!!OTA:	Missa Ad fugam
!!!ONM:	3
!!!OTL:	Credo
!!!AGN:	Mass; Credo
!!!SCT:	NJE 12.2
!!!SCA:	New Josquin Edition 12.2
!!!voices: 4
!!!voices-OPR:	4
**kern	**text	**kern	**text	**kern	**text	**kern	**text
*staff4	*staff4	*staff3	*staff3	*staff2	*staff2	*staff1	*staff1
*Ivox	*	*Ivox	*	*Ivox	*	*Ivox	*
*I"Bassus	*	*I"Tenor	*	*I"Altus	*	*I"Superius	*
*I'B	*	*I'T	*	*I'A	*	*I'S	*
*>[A,B,C,D]	*>[A,B,C,D]	*>[A,B,C,D]	*>[A,B,C,D]	*>[A,B,C,D]	*>[A,B,C,D]	*>[A,B,C,D]	*>[A,B,C,D]
*>A	*>A	*>A	*>A	*>A	*>A	*>A	*>A
*clefF4	*	*clefGv2	*	*clefGv2	*	*clefG2	*
*k[]	*	*k[]	*	*k[]	*	*k[b-]	*
*M3/1	*	*M3/1	*	*M3/1	*	*M3/1	*
*met(O)	*	*met(O)	*	*met(O)	*	*met(O)	*
!!section: Patrem omnipotentem
!!!OMD: Patrem omnipotentem
=1-	=1-	=1-	=1-	=1-	=1-	=1-	=1-
!	!	!	!	!LO:TX:Z=12:X=-40:t=Canon at the upper fourth (one breve)	!	!	!
!	!	!	!	!	!	!LO:TX:Z=12:X=-40:t=Altus In diatessaron liquendo primam pausam	!
0.r	.	1A	Pa-	1e	Pa-	0.r	.
.	.	1d	.	1f	.	.	.
.	.	2.c\	.	1e	-trem	.	.
.	.	4B\	.	.	.	.	.
=2	=2	=2	=2	=2	=2	=2	=2
0.r	.	2A/	.	2c\	om-	1a	Pa
.	.	2F/	.	2f\	-ni-	.	.
.	.	1G	.	2e\	-po-	1b-	.
.	.	.	.	2.d\	-ten-	.	.
.	.	1A	.	.	.	1a	trem
.	.	.	.	4c#i\	.	.	.
.	.	.	.	4c#i\	.	.	.
.	.	.	.	4B\	.	.	.
=3	=3	=3	=3	=3	=3	=3	=3
0.r	.	2D/	-trem	0d	-tem	2f/	om-
.	.	2G/	om-	.	.	2b-\	-ni-
.	.	2F/	-ni-	.	.	2a/	-po-
.	.	2G/	-po-	.	.	2.g/	-ten-
.	.	1A	-ten-	1r	.	.	.
.	.	.	.	.	.	4f#i/	.
.	.	.	.	.	.	4f#i/	.
.	.	.	.	.	.	4e/	.
=4	=4	=4	=4	=4	=4	=4	=4
2r	.	2G/	-tem	2r	.	0g	-tem
2G\	fac-	2B\	fac-	2d\	fac-	.	.
2G\	-to-	2B\	-to-	2d\	-to-	.	.
2G\	-rem	2B\	-rem	2d\	-rem	.	.
1G	ce-	1B	ce-	1d	ce-	1r	.
=5	=5	=5	=5	=5	=5	=5	=5
1C	-li	1c	-li	2c\	-li	2r	.
.	.	.	.	2.e\	et	2g/	fac-
2.G\	et	2B\	et	.	.	2g/	-to-
.	.	.	.	4d\	.	.	.
.	.	2.G/	ter-	1d	ter-	2g/	-rem
4F\	.	.	.	.	.	.	.
1E	ter-	.	.	.	.	1g	ce-
.	.	4F/	.	.	.	.	.
.	.	4G/	.	2c#i\	.	.	.
.	.	4A/	.	.	.	.	.
=6	=6	=6	=6	=6	=6	=6	=6
1D	-re,	2B-\	.	1d	-re,	2f/	-li
.	.	2A/	.	.	.	2.a/	et
1r	.	2F/	.	2d\	vi-	.	.
.	.	.	.	.	.	4g/	.
.	.	2G/	.	2d\	-si-	1g	ter-
1D	vi-	1A	.	2d\	-bi-	.	.
.	.	.	.	2d\	-li-	2f#i/	.
=7	=7	=7	=7	=7	=7	=7	=7
1C	-si-	1c	-re,	1e	-um	1g	-re,
2G\	-bi-	2B-i\	vi-	2d\	om-	2g/	vi-
2C/	-li-	2c\	-si-	2c\	-ni-	2g/	-si-
1G	-um	2d\	-bi-	1B	-um	2g/	-bi-
.	.	2e\	-li-	.	.	2g/	-li-
=8	=8	=8	=8	=8	=8	=8	=8
1F	om-	2f\	-um	1A	.	1a	-um
.	.	2F/	om-	.	.	.	.
2E\	.	2G/	.	1r	.	2g/	om-
2D\	.	2.B-\	.	.	.	2f/	-ni-
1C	-ni-	.	.	1c	et	1e	-um
.	.	4G/	.	.	.	.	.
.	.	2A/	.	.	.	.	.
=9	=9	=9	=9	=9	=9	=9	=9
2BB-/	-um	2.B-\	.	2d\	in-	1d	.
1D	et	.	.	1f	-vi-	.	.
.	.	4A/	-ni-	.	.	.	.
.	.	2F/	-um	.	.	1r	.
2C/	in-	2c\	et	2e\	.	.	.
2BB-i/	-vi-	4d\	in-	2d\	.	1f	et
.	.	2B-i\	.	.	.	.	.
2D\	-si-	.	.	2f\	.	.	.
.	.	4A/	.	.	.	.	.
=10	=10	=10	=10	=10	=10	=10	=10
2C/	-bi-	2c\	.	2e\	.	2g/	in-
1G	.	2.B-i\	-vi-	1d	.	1b-	-vi-
.	.	4A/	.	.	.	.	.
2D\	.	2F/	.	2f\	.	2a/	.
2E\	.	1G	.	2e\	.	2g/	.
2G\	.	.	.	2d\	-si-	2b-\	.
=11	=11	=11	=11	=11	=11	=11	=11
2F\	.	2A/	.	2f\	-bi-	2a/	.
2C/	.	2c\	-si-	2.e\	.	1g	.
2.G\	.	2.B-i\	-bi-	.	.	.	.
.	.	.	.	4d\	.	.	.
.	.	.	.	2.d\	.	2b-\	.
4F\	.	4A/	.	.	.	.	.
2D\	.	2F/	.	.	.	2a/	.
.	.	.	.	4c#i\	.	.	.
2E\	.	2G/	.	4c#i\	-li-	2g/	-si-
.	.	.	.	4B\	.	.	.
=12	=12	=12	=12	=12	=12	=12	=12
2.D\	.	4F/	.	1d	-um.	2b-\	-bi-
.	.	4D/	.	.	.	.	.
.	.	1d	.	.	.	2.a/	.
4E\	.	.	.	.	.	.	.
2F\	.	.	.	1r	.	.	.
.	.	.	.	.	.	4g/	.
2G\	-li-	2B\	.	.	.	2.g/	.
1D	-um.	1A	-li-	2r	.	.	.
.	.	.	.	.	.	4f#i/	.
.	.	.	.	[2d\	Et	4f#i/	-li-
.	.	.	.	.	.	4e/	.
=13	=13	=13	=13	=13	=13	=13	=13
2.G\	Et	1G	-um.	2d\]	.	1g	-um.
.	.	.	.	2d\	in	.	.
4G\	in	.	.	.	.	.	.
2G\	u-	2.B\	Et	2d\	u-	1r	.
2G\	-num	.	.	2d\	-num	.	.
.	.	4B\	in	.	.	.	.
2G\	do-	2B\	u-	2d\	do-	2r	.
2G\	-mi-	2B\	-num	2d\	-mi-	[2g/	Et
=14	=14	=14	=14	=14	=14	=14	=14
1G	-num,	2B\	do-	2d\	-num,	2g/]	.
.	.	1e	.	2B\	Je-	2g/	in
1C	Je-	.	.	1c	-sum	2g/	u-
.	.	4d\	-mi-	.	.	2g/	-num
.	.	4c\	.	.	.	.	.
2.G\	-sum	1B	-num,	1d	Chri-	2g/	do-
.	.	.	.	.	.	2g/	-mi-
4F\	.	.	.	.	.	.	.
=15	=15	=15	=15	=15	=15	=15	=15
1E	.	1c	Je-	1e	-stum,	2g/	-num,
.	.	.	.	.	.	2e/	Je-
2D\	Chri-	2d\	-sum	1r	.	1f	-sum
2F\	.	2A/	.	.	.	.	.
1E	-stum,	1B	Chri-	1r	.	1g	Chri-
=16	=16	=16	=16	=16	=16	=16	=16
2r	.	2A/	-stum,	1e	fi-	1a	-stum,
2A\	fi-	2c\	fi-	.	.	.	.
2A\	-li-	2c\	-li-	2e\	-li-	1r	.
2A\	-um	2c\	-um	2e\	-um	.	.
2.D\	De-	2d\	De-	1d	De-	1r	.
.	.	[2A/	-i	.	.	.	.
4E\	-i	.	.	.	.	.	.
=17	=17	=17	=17	=17	=17	=17	=17
4F\	u-	4A/]	.	2c\	-i	1a	fi-
4G\	.	4B\	.	.	.	.	.
1A	-ni-	2c\	u-	2f\	u-	.	.
.	.	2A/	-ni-	2e\	-ni-	2a/	-li-
2F\	-ge-	2.d\	-ge-	1d	-ge-	2a/	-um
1E	-ni-	.	.	.	.	1g	De-
.	.	4B\	.	.	.	.	.
.	.	2G/	.	2c#i\	-ni-	.	.
=18	=18	=18	=18	=18	=18	=18	=18
0.D	-tum.	2A/	.	1d	-tum.	2f/	-i
.	.	2.d\	.	.	.	2b-\	u-
.	.	.	.	1r	.	2a/	-ni-
.	.	4c\	.	.	.	.	.
.	.	2B\	.	.	.	1g	-ge-
.	.	1A	-ni-	1r	.	.	.
.	.	.	.	.	.	2f#i/	-ni-
=19	=19	=19	=19	=19	=19	=19	=19
2r	.	2G/	-tum.	2d\	Et	1g	-tum.
2G\	Et	2B\	Et	2d\	ex	.	.
2G\	ex	2B\	ex	2d\	pa-	1r	.
2G\	pa-	2B\	pa-	2d\	-tre	.	.
2G\	-tre	2B\	-tre	1d	na-	1r	.
2G\	na-	2B\	na-	.	.	.	.
=20	=20	=20	=20	=20	=20	=20	=20
2C/	-tum,	2c\	-tum,	2e\	-tum,	2g/	Et
2G\	an-	2B\	an-	2d\	an-	2g/	ex
2C/	-te	2c\	-te	2e\	-te	2g/	pa-
2.G\	om-	2B\	om-	2d\	om-	2g/	-tre
.	.	2.c\	-ni-	2e\	-ni-	1g	na-
4F\	-ni-	.	.	.	.	.	.
2E\	-a	.	.	2g\	-a	.	.
.	.	4B\	.	.	.	.	.
=21	=21	=21	=21	=21	=21	=21	=21
2D\	se-	2d\	.	2f\	se-	2a/	-tum,
2E\	.	2B\	.	2.e\	.	2g/	an-
2F\	.	2A/	.	.	.	2a/	-te
.	.	.	.	4d\	.	.	.
2G\	.	2B-\	-a	1d	.	2g/	om-
4F\	.	2A/	se-	.	.	2a/	-ni-
4D\	.	.	.	.	.	.	.
2E\	-cu-	2G/	.	2c#i\	-cu-	2cc\	-a
=22	=22	=22	=22	=22	=22	=22	=22
1D	-la.	4F/	.	1d	-la.	2b-\	se-
.	.	4D/	.	.	.	.	.
.	.	1d	.	.	.	2.a/	.
1r	.	.	.	1r	.	.	.
.	.	.	.	.	.	4g/	.
.	.	2B\	.	.	.	1g	.
1D	De-	1A	-cu-	1r	.	.	.
.	.	.	.	.	.	2f#i/	-cu-
=23	=23	=23	=23	=23	=23	=23	=23
2G\	-um	0G	-la.	2r	.	1g	-la.
2G\	de	.	.	1d	de-	.	.
1E	de-	.	.	.	.	1r	.
.	.	.	.	2c\	-um	.	.
1D	-o,	2r	.	1d	de	1r	.
.	.	[2d\	de-	.	.	.	.
=24	=24	=24	=24	=24	=24	=24	=24
0.r	.	2d\]	.	1e	de-	2r	.
.	.	2c\	-um	.	.	1g	de-
.	.	1d	de	1d	-o,	.	.
.	.	.	.	.	.	2f/	-um
.	.	1e	De-	1r	.	1g	de
=25	=25	=25	=25	=25	=25	=25	=25
1D	lu-	1d	-o,	2r	.	1a	de-
.	.	.	.	2d\	lu-	.	.
2G\	-men	2r	.	2d\	-men	1g	-o,
2G\	de	2B\	lu-	2d\	de	.	.
2C/	lu-	2c\	-men	2e\	lu-	1r	.
2C/	-mi-	2c\	de	2c\	-mi-	.	.
=26	=26	=26	=26	=26	=26	=26	=26
1G	-ne,	2B\	lu-	1d	-ne,	2r	.
.	.	2G/	-mi-	.	.	2g/	lu-
1G	de-	1d	-ne,	2r	.	2g/	-men
.	.	.	.	2B\	de-	2g/	de
2F\	-um	2r	.	2c\	-um	2a/	lu-
2D\	.	2A/	De-	2d\	ve-	2f/	-mi-
=27	=27	=27	=27	=27	=27	=27	=27
*	*	*	*	*	*	*k[]	*
1C	ve-	4c\	-um	1e	-rum	1g	-ne,
.	.	4G/	.	.	.	.	.
.	.	4c\	.	.	.	.	.
.	.	4d\	.	.	.	.	.
1C	-rum	4e\	ve-	1g	de	2r	.
.	.	4c\	.	.	.	.	.
.	.	2e\	.	.	.	2e/	de-
2D\	de	4d\	.	2f\	de-	2f/	-um
.	.	4c\	.	.	.	.	.
2E\	.	2B\	.	[2e\	-o	2g/	ve-
=28	=28	=28	=28	=28	=28	=28	=28
2.F\	de-	2A/	-rum	4e\]	.	1a	-rum
.	.	.	.	4d\	.	.	.
.	.	1f	de	1d	ve-	.	.
4G\	.	.	.	.	.	.	.
1A	.	.	.	.	.	1cc	de
.	.	2e\	de-	2c#i\	.	.	.
2.D\	-o	2.d\	-o	1d	-ro.	2bni\	de-
.	.	.	.	.	.	[2a/	-o
4E\	.	4c\	.	.	.	.	.
=29	=29	=29	=29	=29	=29	=29	=29
2F\	ve-	2A/	ve-	1r	.	4a/]	.
.	.	.	.	.	.	4g/	.
2G\	.	2B\	.	.	.	1g	ve-
1D	-ro.	1A	-ro.	1r	.	.	.
.	.	.	.	.	.	2f#i/	.
2.G\	Ge-	2G/	Ge-	2.d\	Ge-	1g	-ro.
.	.	[2B\	-ni-	.	.	.	.
4G\	-ni-	.	.	4d\	-ni-	.	.
=30	=30	=30	=30	=30	=30	=30	=30
2E\	-tum	2B\]	.	2e\	-tum	1r	.
2E\	non	2c\	-tum	2e\	non	.	.
1F	fac-	2A/	non	1d	fac-	1r	.
.	.	2A/	fac-	.	.	.	.
1E	-tum,	1B	-tum,	1e	-tum,	2.g/	Ge-
.	.	.	.	.	.	4g/	-ni-
=31	=31	=31	=31	=31	=31	=31	=31
1F	con-	2.A/	con-	2r	.	2a/	-tum
.	.	.	.	2d\	con-	2a/	non
.	.	4B\	-sub-	.	.	.	.
2E\	-sub-	2c\	-stan-	2e\	-sub-	1g	fac-
2E\	-stan-	2B\	-ti-	1g	-stan-	.	.
2D\	-ti-	2d\	-a-	.	.	1a	-tum,
2D\	-a-	2A/	-lem	2f\	-ti-	.	.
=32	=32	=32	=32	=32	=32	=32	=32
1G	.	1B	pa-	2e\	-a-	2r	.
.	.	.	.	2d\	-lem	2g/	con-
2F\	.	1A	-tri,	1f	pa-	2a/	-sub-
1A	.	.	.	.	.	1cc	-stan-
.	.	2r	.	1e	-tri,	.	.
2G\	.	2B\	per	.	.	2b\	-ti-
=33	=33	=33	=33	=33	=33	=33	=33
2F\	.	1c	quem	2r	.	2a/	-a-
2E\	-lem	.	.	2e\	per	2g/	-lem
1G	pa-	2B\	om-	2d\	quem	1b	pa-
.	.	2G/	.	2d\	om-	.	.
2D\	-tri,	2d\	.	2f\	.	1a	-tri,
[2A\	per	2c\	-ni-	[2e\	.	.	.
=34	=34	=34	=34	=34	=34	=34	=34
2A\]	.	1A	-a	4e\]	.	2r	.
.	.	.	.	4d\	.	.	.
2F\	.	.	.	1d	.	2a/	per
1E	quem	2r	.	.	.	2g/	quem
.	.	2e\	fac-	2c#i\	-ni-	2g/	om-
2.D\	om-	[1f	.	1d	-a	2b-i\	.
.	.	.	.	.	.	[2a/	.
4E\	.	.	.	.	.	.	.
=35	=35	=35	=35	=35	=35	=35	=35
2F\	.	2f\]	.	2c\	fac-	4a/]	.
.	.	.	.	.	.	4g/	.
2G\	.	1.d	.	2B\	.	1g	.
1D	-ni-	.	.	1A	.	.	.
.	.	.	.	.	.	2f#i/	-ni-
1E-	-a	2B-i\	.	4G/	.	1g	-a
.	.	.	.	4A/	.	.	.
.	.	2G/	.	4B-i\	.	.	.
.	.	.	.	4c\	.	.	.
=36	=36	=36	=36	=36	=36	=36	=36
2D\	fac-	2A/	.	2d\	.	2f/	fac-
2Eni\	.	2G/	.	1c	.	2e/	.
2F\	.	2A/	-ta	.	.	1d	.
2G\	.	2G/	sunt.	2B\	-ta	.	.
2.A\	.	2r	.	1c	sunt.	4c/	.
.	.	.	.	.	.	4d/	.
.	.	2A/	fac-	.	.	4e/	.
4G\	.	.	.	.	.	4f/	.
=37	=37	=37	=37	=37	=37	=37	=37
2E\	.	2G/	.	1r	.	2g/	.
2F\	-ta	1.c	-ta	.	.	1f	.
1C	sunt.	.	.	1r	.	.	.
.	.	.	.	.	.	2e/	-ta
2F\	Qui	[1A	sunt.	2c\	Qui	1f	sunt.
2F\	pro-	.	.	2c\	pro-	.	.
=38	=38	=38	=38	=38	=38	=38	=38
2F\	-pter	1A]	.	2c\	-pter	1r	.
2A\	nos	.	.	2c\	nos	.	.
2G\	ho-	1r	.	2d\	ho-	1r	.
2G\	-mi-	.	.	2e\	-mi-	.	.
1F	-nes,	2A/	Qui	1f	-nes,	2f/	Qui
.	.	2A/	pro-	.	.	2f/	pro-
=39	=39	=39	=39	=39	=39	=39	=39
1r	.	2B-\	-pter	1r	.	2f/	-pter
.	.	2d\	nos	.	.	2f/	nos
1r	.	2c\	ho-	1r	.	2g/	ho-
.	.	2c\	-mi-	.	.	2a/	-mi-
2G\	et	1B-i	-nes,	2d\	et	1b-i	-nes,
4G\	pro-	.	.	4d\	pro-	.	.
4G\	-pter	.	.	4d\	-pter	.	.
=40	=40	=40	=40	=40	=40	=40	=40
2G\	no-	1r	.	2d\	no-	1r	.
2B-i\	-stram	.	.	2d\	-stram	.	.
2A\	sa-	1r	.	2e\	sa-	1r	.
2A\	-lu-	.	.	2f\	-lu-	.	.
1G	-tem	2B-\	et	1g	-tem	2g/	et
.	.	4B-\	pro-	.	.	4g/	pro-
.	.	4B-\	-pter	.	.	4g/	-pter
=41	=41	=41	=41	=41	=41	=41	=41
1r	.	2c\	no-	1r	.	2g/	no-
.	.	2e-i\	-stram	.	.	2g/	-stram
2r	.	2d\	sa-	2r	.	2a/	sa-
2G\	de-	2d\	-lu-	2g\	de-	2b-i\	-lu-
2A\	-scen-	1c	-tem	2f\	-scen-	1cc	-tem
[2F\	-dit	.	.	[2a\	.	.	.
=42	=42	=42	=42	=42	=42	=42	=42
4F\]	.	1r	.	4a\]	.	1r	.
4G\	.	.	.	4g\	.	.	.
2B-i\	de-	.	.	1g	.	.	.
1A	-ce-	1c	de-	.	.	2r	.
.	.	.	.	2f#i\	.	2cc\	de-
1G	-lis,	2d\	-scen-	1g	.	2b-i\	-scen-
.	.	[2B-i\	.	.	.	[2dd\	.
=43	=43	=43	=43	=43	=43	=43	=43
1r	.	2B-i\]	.	2f\	.	4dd\]	.
.	.	.	.	.	.	4cc\	.
.	.	2c\	.	2e\	.	1cc	.
2r	.	1G	-dit	1d	-dit	.	.
2G\	de-	.	.	.	.	2b\	.
1A	-scen-	1r	.	2c\	de-	1cc	-dit
.	.	.	.	[2e\	-ce-	.	.
=44	=44	=44	=44	=44	=44	=44	=44
2G\	-dit	1r	.	4e\]	.	2b-i\	de-
.	.	.	.	4d\	.	.	.
2F\	de-	.	.	1d	.	2a/	.
1E	-ce-	1G	de-	.	.	1g	.
.	.	.	.	2c#i\	.	.	.
1D	-lis,	2A/	-scen-	1d	-lis,	2f/	.
.	.	2F/	.	.	.	[2a/	-ce-
=45	=45	=45	=45	=45	=45	=45	=45
1r	.	2G/	-dit	1r	.	4a/]	.
.	.	.	.	.	.	4g/	.
.	.	2B-i\	de-	.	.	1g	.
1D	de-	1A	-ce-	2r	.	.	.
.	.	.	.	2d\	de-	2f#i/	.
2E\	-ce-	2G/	-lis,	2c\	.	1g	-lis,
[2G\	.	[2B-i\	de-	[2e\	-ce-	.	.
=46	=46	=46	=46	=46	=46	=46	=46
4G\]	.	4B-i\]	.	4e\]	.	1r	.
4F\	.	4A/	.	4d\	.	.	.
2D\	.	1A	-ce-	1d	.	.	.
1E	.	.	.	.	.	2r	.
.	.	2G/	.	2c#i\	.	2g/	de-
[1D	.	2A/	.	[1dl	-lis.	2f/	.
.	.	[2F/	.	.	.	[2a/	-ce-
=47	=47	=47	=47	=47	=47	=47	=47
0D]	.	4F/]	.	0.d]	.	4a/]	.
.	.	4G/	.	.	.	4g/	.
.	.	2B-i\	.	.	.	1g	.
.	.	1A	.	.	.	.	.
.	.	.	.	.	.	2f#i/	.
1Gl	-lis.	1Gl	-lis.	.	.	1gl	-lis.
!!LO:LB:i:g=z
=48||	=48||	=48||	=48||	=48||	=48||	=48||	=48||
*>B	*>B	*>B	*>B	*>B	*>B	*>B	*>B
*clefF4	*	*clefGv2	*	*clefGv2	*	*clefG2	*
*k[]	*	*k[]	*	*k[]	*	*k[]	*
*M2/1	*	*M2/1	*	*M2/1	*	*M2/1	*
*met(C|)	*	*met(C|)	*	*met(C|)	*	*met(C|)	*
!!section: Et incarnatus est
!!!OMD: Et incarnatus est
!	!	!	!	!LO:TX:Z=15:X=-40:t=Canon at the upper fourth (one breve)	!	!	!
0G	Et	0G	Et	0d	Et	0r	.
=49	=49	=49	=49	=49	=49	=49	=49
1G	in-	1B	in-	1d	in-	0g	Et
1G	-car-	1B	-car-	1d	-car-	.	.
=50	=50	=50	=50	=50	=50	=50	=50
0C	-na-	[0c	-na-	0e	-na-	1g	in-
.	.	.	.	.	.	1g	-car-
=51	=51	=51	=51	=51	=51	=51	=51
0F	-tus	1c]	.	0c	-tus	0a	-na-
.	.	1A	.	.	.	.	.
=52	=52	=52	=52	=52	=52	=52	=52
0D	est	0A	-tus	0d	est	0f	-tus
=53	=53	=53	=53	=53	=53	=53	=53
1r	.	0G	est	1r	.	0g	est
1G	de	.	.	1d	de	.	.
=54	=54	=54	=54	=54	=54	=54	=54
1G	spi-	1r	.	1d	spi-	1r	.
1G	-ri-	1G	de	1B	-ri-	1g	de
=55	=55	=55	=55	=55	=55	=55	=55
0C	-tu	1G	spi-	0c	-tu	1g	spi-
.	.	1G	-ri-	.	.	1e	-ri-
=56	=56	=56	=56	=56	=56	=56	=56
0F	sanc-	0A	-tu	0d	sanc-	0f	-tu
=57	=57	=57	=57	=57	=57	=57	=57
0E	-to,	0B	sanc-	0e	-to,	0g	sanc-
=58	=58	=58	=58	=58	=58	=58	=58
1r	.	0A	-to,	0r	.	0a	-to,
1A	ex	.	.	.	.	.	.
=59	=59	=59	=59	=59	=59	=59	=59
1A	Ma-	1r	.	0e	ex	0r	.
1A	-ri-	[1c	ex	.	.	.	.
=60	=60	=60	=60	=60	=60	=60	=60
0F	-a	1c]	.	0f	Ma-	0a	ex
.	.	[1d	Ma-	.	.	.	.
=61	=61	=61	=61	=61	=61	=61	=61
0G	vir-	1d]	.	0d	-ri-	0b-	Ma-
.	.	[1B	-ri-	.	.	.	.
=62	=62	=62	=62	=62	=62	=62	=62
0E	-gi-	1B]	.	0e	-a	0g	-ri-
.	.	[1c	-a	.	.	.	.
=63	=63	=63	=63	=63	=63	=63	=63
1.F	-ne,	1c]	.	0c	vir-	0a	-a
.	.	[1A	vir-	.	.	.	.
4E\	.	.	.	.	.	.	.
4D\	.	.	.	.	.	.	.
=64	=64	=64	=64	=64	=64	=64	=64
0D	.	1A]	.	0d	-gi-	0f	vir-
.	.	[1d	.	.	.	.	.
=65	=65	=65	=65	=65	=65	=65	=65
0G	vir-	1d]	.	0d	-ne,	0g	-gi-
.	.	1B	-gi-	.	.	.	.
=66	=66	=66	=66	=66	=66	=66	=66
0E	-gi-	1.e	-ne,	0r	.	0g	-ne,
.	.	2d\	.	.	.	.	.
=67	=67	=67	=67	=67	=67	=67	=67
1.A	-ne,	2c\	.	0e	et	0r	.
.	.	2B\	.	.	.	.	.
.	.	1A	.	.	.	.	.
2G\	.	.	.	.	.	.	.
=68	=68	=68	=68	=68	=68	=68	=68
2F\	.	1r	.	0f	ho-	0a	et
2E\	.	.	.	.	.	.	.
1D	.	1d	et	.	.	.	.
=69	=69	=69	=69	=69	=69	=69	=69
2r	.	1B-i	ho-	1d	-mo	0b-i	ho-
2.G\	et	.	.	.	.	.	.
.	.	[1G	-mo	[1e	fac-	.	.
4F\	.	.	.	.	.	.	.
2G\	.	.	.	.	.	.	.
=70	=70	=70	=70	=70	=70	=70	=70
2E\	ho-	2G/]	.	2e\]	.	1g	-mo
2G\	.	2B-i\	fac-	2d\	.	.	.
2F\	.	2A/	.	[1d	.	[1a	fac-
2D\	-mo	2F/	.	.	.	.	.
=71	=71	=71	=71	=71	=71	=71	=71
2.F\	fac-	2A/	.	1d]	.	2a/]	.
.	.	2B-i\	.	.	.	2g/	.
4G\	.	.	.	.	.	.	.
1E	.	2.G/	.	1c#i	-tus	[1g	.
.	.	4A/	.	.	.	.	.
=72	=72	=72	=72	=72	=72	=72	=72
0D	-tus	2B-i\	.	[0dl	est.	1g]	.
.	.	2c\	.	.	.	.	.
.	.	1A	-tus	.	.	1f#i	-tus
=73	=73	=73	=73	=73	=73	=73	=73
0Gl	est.	0Gl	est.	0d]	.	0gl	est.
!!LO:LB:i:g=z
=74||	=74||	=74||	=74||	=74||	=74||	=74||	=74||
*>C	*>C	*>C	*>C	*>C	*>C	*>C	*>C
*clefF4	*	*clefGv2	*	*clefGv2	*	*clefG2	*
*k[]	*	*k[]	*	*k[]	*	*k[]	*
*M2/1	*	*M2/1	*	*M2/1	*	*M2/1	*
*met(C|)	*	*met(C|)	*	*met(C|)	*	*met(C|)	*
!!section: Crucifixus
!!!OMD: Crucifixus
!	!	!	!	!LO:TX:Z=10:X=-40:t=Canon at the upper fourth (two breves)	!	!	!
0r	.	0r	.	1d	Cru-	0r	.
.	.	.	.	1e	-ci-	.	.
=75	=75	=75	=75	=75	=75	=75	=75
1G	Cru-	0r	.	2d\	-fi-	0r	.
.	.	.	.	2B\	-xus	.	.
1A	-ci-	.	.	2c\	e-	.	.
.	.	.	.	2c\	-ti-	.	.
=76	=76	=76	=76	=76	=76	=76	=76
2G\	-fi-	0r	.	2B\	-am	1g	Cru-
2E\	-xus	.	.	2.e\	pro	.	.
2F\	e-	.	.	.	.	1a	-ci-
.	.	.	.	4d\	.	.	.
2F\	-ti-	.	.	4d\	no-	.	.
.	.	.	.	4c\	.	.	.
=77	=77	=77	=77	=77	=77	=77	=77
2E\	-am	1c	Cru-	1e	-bis,	2g/	-fi-
2E\	pro	.	.	.	.	2e/	-xus
1D	no-	1d	-ci-	1r	.	2f/	et-
.	.	.	.	.	.	2f/	-i-
=78	=78	=78	=78	=78	=78	=78	=78
1A	-bis,	2c\	-fi-	0r	.	2e/	-am
.	.	2A/	-xus	.	.	2.a/	pro
1r	.	2B\	et-	.	.	.	.
.	.	.	.	.	.	4g#i/	.
.	.	2B\	-i-	.	.	4g#i/	no-
.	.	.	.	.	.	4f#i/	.
=79	=79	=79	=79	=79	=79	=79	=79
2r	.	2A/	-am	2e\	sub	1a	-bis,
2A\	sub	2A/	pro	2f\	Pon-	.	.
2B\	Pon-	2G/	no-	2g\	-ti-	1r	.
2c\	-ti-	[2F/	.	[2a\	-o	.	.
=80	=80	=80	=80	=80	=80	=80	=80
2A\	-o	2F/]	.	2a\]	.	0r	.
2B\	Pi-	4E/	.	2f\	Pi-	.	.
.	.	4D/	.	.	.	.	.
1c	-la-	1A	-bis,	1e	-la-	.	.
=81	=81	=81	=81	=81	=81	=81	=81
1d	-to	2r	.	1d	-to	2a/	sub
.	.	2d\	sub	.	.	2b\	Pon-
1r	.	2e\	Pon-	1r	.	2cc\	-ti-
.	.	2f\	-ti-	.	.	[2dd\	-o
=82	=82	=82	=82	=82	=82	=82	=82
1r	.	2d\	-o	0r	.	2dd\]	.
.	.	2e\	Pi-	.	.	2b\	Pi-
1D	pas-	1f	-la-	.	.	1a	-la-
=83	=83	=83	=83	=83	=83	=83	=83
1E	.	1g	-to	2r	.	1g	-to
.	.	.	.	1e	pas-	.	.
1E	-sus	1r	.	.	.	1r	.
.	.	.	.	2e\	-sus	.	.
=84	=84	=84	=84	=84	=84	=84	=84
2.A\	et	1r	.	2.f\	et	0r	.
4G\	se-	.	.	4e\	se-	.	.
2F\	-pul-	2r	.	2d\	-pul-	.	.
2E\	-tus	2G/	pas-	2c#i\	-tus	.	.
=85	=85	=85	=85	=85	=85	=85	=85
0D	est.	1A	.	0d	est.	2r	.
.	.	.	.	.	.	1a	pas-
.	.	1A	-sus	.	.	.	.
.	.	.	.	.	.	2a/	-sus
=86	=86	=86	=86	=86	=86	=86	=86
0r	.	2.d\	et	0r	.	2.b-i\	et
.	.	4c\	se-	.	.	4a/	se-
.	.	2B\	-pul-	.	.	2g/	-pul-
.	.	2A/	-tus	.	.	2f#i/	-tus
=87	=87	=87	=87	=87	=87	=87	=87
1r	.	1G	est.	1r	.	0g	est.
1G	Et	2r	.	1d	Et	.	.
.	.	2G/	Et	.	.	.	.
=88	=88	=88	=88	=88	=88	=88	=88
1G	re-	2B\	re-	1d	re-	0r	.
.	.	2B\	-sur-	.	.	.	.
1E	-sur-	1c	-re-	1e	-sur-	.	.
=89	=89	=89	=89	=89	=89	=89	=89
1F	-re-	1A	-xit	1d	-re-	1r	.
2G\	-xit	2r	.	2B\	-xit	1g	Et
2C/	ter-	2e\	ter-	2c\	ter-	.	.
=90	=90	=90	=90	=90	=90	=90	=90
2G\	-ti-	2d\	-ti-	2B\	-ti-	1g	re-
2E\	-a	2c\	-a	2.e\	-a	.	.
1F	di-	2.A/	di-	.	.	1a	-sur-
.	.	.	.	4d\	.	.	.
.	.	.	.	4d\	di-	.	.
.	.	4B\	.	4c\	.	.	.
=91	=91	=91	=91	=91	=91	=91	=91
1E	-e,	4c\	.	1e	-e,	1g	-re-
.	.	4B\	.	.	.	.	.
.	.	2.e\	.	.	.	.	.
1A	.	.	.	1r	.	2e/	-xit
.	.	4d\	.	.	.	.	.
.	.	[2c\	.	.	.	2f/	ter-
=92	=92	=92	=92	=92	=92	=92	=92
0r	.	2c\]	.	0r	.	2e/	-ti-
.	.	2A/	.	.	.	2.a/	-a
.	.	1B	.	.	.	.	.
.	.	.	.	.	.	4g#i/	.
.	.	.	.	.	.	4g#i/	di-
.	.	.	.	.	.	4f#i/	.
=93	=93	=93	=93	=93	=93	=93	=93
2A\	se-	1A	-e,	2c\	se-	1a	-e,
2F\	-cun-	.	.	2d\	-cun-	.	.
2G\	-dum	1r	.	2e\	-dum	1r	.
[2A\	scrip-	.	.	[2f\	scrip-	.	.
=94	=94	=94	=94	=94	=94	=94	=94
4A\]	.	1r	.	4f\]	.	0r	.
4G\	.	.	.	4e\	.	.	.
2F\	-tu-	.	.	2.d\	-tu-	.	.
1E	-ras,	1G	se-	.	.	.	.
.	.	.	.	4c#i\	.	.	.
.	.	.	.	4c#i\	.	.	.
.	.	.	.	4B\	.	.	.
=95	=95	=95	=95	=95	=95	=95	=95
2D\	se-	2A/	-cun-	1d	-ras,	2f/	se-
2G\	-cun-	2B\	-dum	.	.	2g/	-cun-
2F\	-dum	2c\	scrip-	1r	.	2a/	-dum
2D\	scrip-	2d\	.	.	.	[2b-i\	scrip-
=96	=96	=96	=96	=96	=96	=96	=96
1E	-tu-	1G	-tu-	2B\	Et	4b-i\]	.
.	.	.	.	.	.	4a/	.
.	.	.	.	2c\	a-	2.g/	-tu-
1D	-ras,	1A	.	1d	-scen-	.	.
.	.	.	.	.	.	4f#i/	.
.	.	.	.	.	.	4f#i/	.
.	.	.	.	.	.	4e/	.
=97	=97	=97	=97	=97	=97	=97	=97
2G\	Et	1G	-ras,	2B\	-dit	1g	-ras,
2E\	a-	.	.	2c\	in	.	.
2F\	-scen-	1r	.	2d\	ce-	1r	.
2G\	-dit	.	.	[2e\	.	.	.
=98	=98	=98	=98	=98	=98	=98	=98
2A\	in	1r	.	4e\]	.	2e/	Et
.	.	.	.	4d\	.	.	.
2F\	ce-	.	.	4d\	.	2f/	a-
.	.	.	.	4c\	.	.	.
1E	-lum,	2r	.	1e	-lum,	1g	-scen-
.	.	[2c\	Et	.	.	.	.
=99	=99	=99	=99	=99	=99	=99	=99
0r	.	2c\]	.	0r	.	2e/	-dit
.	.	2A/	a-	.	.	2f/	in
.	.	2B\	-scen-	.	.	2g/	ce-
.	.	2c\	-dit	.	.	[2a/	.
=100	=100	=100	=100	=100	=100	=100	=100
1r	.	2d\	in	1r	.	4a/]	.
.	.	.	.	.	.	4g#i/	.
.	.	2B\	ce-	.	.	4g#i/	.
.	.	.	.	.	.	4f#i/	.
2r	.	[1A	-lum,	2r	.	1a	-lum,
2A\	se-	.	.	2e\	se-	.	.
=101	=101	=101	=101	=101	=101	=101	=101
2A\	-det	1A]	.	2e\	-det	0r	.
2A\	ad	.	.	2e\	ad	.	.
2.A\	dex-	1r	.	2.f\	dex-	.	.
4G\	-te-	.	.	4e\	-te-	.	.
=102	=102	=102	=102	=102	=102	=102	=102
2F\	-ram	1r	.	2d\	-ram	1r	.
2E\	pa-	.	.	2c#i\	pa-	.	.
[1D	-tris.	2r	.	1d	-tris.	2r	.
.	.	2d\	se-	.	.	2a/	se-
=103	=103	=103	=103	=103	=103	=103	=103
1D]	.	2d\	-det	0r	.	2a/	-det
.	.	2d\	ad	.	.	2a/	ad
1r	.	2.d\	dex-	.	.	2.b-\	dex-
.	.	4c\	-te-	.	.	4a/	-te-
=104	=104	=104	=104	=104	=104	=104	=104
2r	.	2B\	-ram	2r	.	2g/	-ram
2D\	Et	2A/	pa-	2d\	Et	2f#i/	pa-
2.E\	i-	1G	-tris.	2B\	i-	1g	-tris.
.	.	.	.	2c\	-te-	.	.
4E\	-te-	.	.	.	.	.	.
=105	=105	=105	=105	=105	=105	=105	=105
2D\	-rum	0r	.	2d\	-rum	0r	.
2F\	ven-	.	.	2A/	ven-	.	.
2E\	-tu-	.	.	2B\	-tu-	.	.
2E\	-rus	.	.	2c\	-rus	.	.
=106	=106	=106	=106	=106	=106	=106	=106
2D\	est	2r	.	2d\	est	2r	.
2E\	cum	2G/	Et	2B\	cum	2g/	Et
2E\	glo-	2G/	i-	2c\	glo-	2e/	i-
2D\	-ri-	2A/	-te-	2d\	-ri-	2f/	-te-
=107	=107	=107	=107	=107	=107	=107	=107
2G\	-a	2G/	-rum	2B\	-a	2g/	-rum
2G\	ju-	2B\	ven-	2B\	ju-	2d/	ven-
2C/	-di-	2G/	-tu-	2c\	-di-	2e/	-tu-
2F\	-ca-	2A/	-rus	2d\	-ca-	2f/	-rus
=108	=108	=108	=108	=108	=108	=108	=108
1E	-re	2G/	est	1e	-re	2g/	est
.	.	2c\	cum	.	.	2e/	cum
1r	.	2A/	glo-	1r	.	2f/	glo-
.	.	2B\	-ri-	.	.	2g/	-ri-
=109	=109	=109	=109	=109	=109	=109	=109
0r	.	2A/	-a	0r	.	2e/	-a
.	.	2c\	ju-	.	.	2e/	ju-
.	.	2A/	-di-	.	.	2f/	-di-
.	.	2B\	-ca-	.	.	2g/	-ca-
=110	=110	=110	=110	=110	=110	=110	=110
0r	.	1A	-re	2r	.	1a	-re
.	.	.	.	2e\	vi-	.	.
.	.	1r	.	2e\	-vos	1r	.
.	.	.	.	2d\	et	.	.
=111	=111	=111	=111	=111	=111	=111	=111
2r	.	0r	.	1c	mor-	0r	.
2A\	vi-	.	.	.	.	.	.
2A\	-vos	.	.	1B	-tu-	.	.
2G\	et	.	.	.	.	.	.
=112	=112	=112	=112	=112	=112	=112	=112
1F	mor-	2r	.	1A	-os,	2r	.
.	.	2A/	vi-	.	.	2a/	vi-
1E	-tu-	2c\	-vos	1r	.	2a/	-vos
.	.	[2B\	et	.	.	2g/	et
=113	=113	=113	=113	=113	=113	=113	=113
1D	-os,	4B\]	.	1r	.	1f	mor-
.	.	4A/	.	.	.	.	.
.	.	1d	mor-	.	.	.	.
1r	.	.	.	1A	cu-	1e	-tu-
.	.	2c#i\	-tu-	.	.	.	.
=114	=114	=114	=114	=114	=114	=114	=114
1D	cu-	1d	-os,	1B	-jus	1d	-os,
1E	-jus	1r	.	1c	re-	1r	.
=115	=115	=115	=115	=115	=115	=115	=115
1F	re-	0r	.	1d	-gni	1r	.
1G	-gni	.	.	1B	non	1d	cu-
=116	=116	=116	=116	=116	=116	=116	=116
1C	non	1G	cu-	1c	e-	1e	-jus
1F	e-	1A	-jus	1d	-rit	1f	re-
=117	=117	=117	=117	=117	=117	=117	=117
1E	-rit	1B	re-	0e	fi-	1g	-gni
1A	.	1c	-gni	.	.	1e	non
=118	=118	=118	=118	=118	=118	=118	=118
1D	fi-	1A	non	[0dl	-nis.	1f	e-
1G	.	1B	e-	.	.	1g	-rit
=119	=119	=119	=119	=119	=119	=119	=119
0D	.	2A/	-rit	0d_	.	0a	fi-
.	.	2.d\	fi-	.	.	.	.
.	.	4c\	.	.	.	.	.
.	.	2A/	.	.	.	.	.
=120	=120	=120	=120	=120	=120	=120	=120
0Gl	-nis.	0Bl	-nis.	0d]	.	0gl	-nis.
!!LO:LB:i:g=z
=121||	=121||	=121||	=121||	=121||	=121||	=121||	=121||
*>D	*>D	*>D	*>D	*>D	*>D	*>D	*>D
*clefF4	*	*clefGv2	*	*clefGv2	*	*clefG2	*
*k[]	*	*k[]	*	*k[]	*	*k[]	*
*M2/1	*	*M2/1	*	*M2/1	*	*M2/1	*
*met(C|)	*	*met(C|)	*	*met(C|)	*	*met(C|)	*
!!section: Et in Spiritum
!!!OMD: Et in Spiritum
!	!	!	!	!LO:TX:Z=22:X=-40:t=Canon at the upper fourth (two breves)	!	!	!
1r	.	0r	.	1d	Et	0r	.
1G	Et	.	.	1d	in	.	.
=122	=122	=122	=122	=122	=122	=122	=122
2G\	in	0r	.	2B\	spi-	0r	.
2E\	spi-	.	.	2c\	-ri-	.	.
2F\	-ri-	.	.	1d	-tum	.	.
[2G\	-tum	.	.	.	.	.	.
=123	=123	=123	=123	=123	=123	=123	=123
4G\]	.	1r	.	1r	.	1g	Et
4F\	.	.	.	.	.	.	.
4E\	.	.	.	.	.	.	.
4D\	.	.	.	.	.	.	.
1C	.	1c	Et	2r	.	1g	in
.	.	.	.	[2e\	sanc-	.	.
=124	=124	=124	=124	=124	=124	=124	=124
2r	.	2c\	in	2e\]	.	2e/	spi-
2F\	sanc-	2A/	spi-	2d\	-tum	2f/	-ri-
1E	.	2B\	-ri-	2e\	do-	1g	-tum
.	.	2c\	-tum	2c\	-mi-	.	.
=125	=125	=125	=125	=125	=125	=125	=125
1D	-tum	1d	sanc-	1B	-num	1r	.
1F	do-	2c\	.	1A	.	2r	.
.	.	2A/	.	.	.	[2a/	sanc-
=126	=126	=126	=126	=126	=126	=126	=126
1E	-mi-	1B	-tum	0r	.	2a/]	.
.	.	.	.	.	.	2g/	-tum
2F\	-num	2A/	do-	.	.	2a/	do-
2D\	et	[2d\	.	.	.	2f/	-mi-
=127	=127	=127	=127	=127	=127	=127	=127
1A	vi-	2d\]	.	2r	.	1e	-num
.	.	2c#i\	-mi-	2e\	et	.	.
1D	-vi-	1d	-num	2.f\	vi-	1d	.
.	.	.	.	4f\	-vi-	.	.
=128	=128	=128	=128	=128	=128	=128	=128
2.G\	-fi-	1r	.	2e\	-fi-	0r	.
.	.	.	.	1d	-can-	.	.
4F\	.	.	.	.	.	.	.
1E	-can-	1G	et	.	.	.	.
.	.	.	.	2c#i\	.	.	.
=129	=129	=129	=129	=129	=129	=129	=129
1D	-tem,	1A	vi-	1d	-tem,	2r	.
.	.	.	.	.	.	2a/	et
2r	.	2G/	-vi-	1r	.	2.b-i\	vi-
2G\	qui	[2d\	-fi-	.	.	.	.
.	.	.	.	.	.	4b-\	-vi-
=130	=130	=130	=130	=130	=130	=130	=130
2F\	ex	4d\]	.	1r	.	2a/	-fi-
.	.	4c\	.	.	.	.	.
2G\	pa-	2B\	.	.	.	1g	-can-
1D	-tre,	1A	-can-	2r	.	.	.
.	.	.	.	2d\	qui	2f#i/	.
=131	=131	=131	=131	=131	=131	=131	=131
2r	.	1G	-tem,	2B\	ex	1g	-tem,
2E\	qui	.	.	2c\	pa-	.	.
2F\	ex	1r	.	2d\	-tre	1r	.
2G\	pa-	.	.	2B\	fi-	.	.
=132	=132	=132	=132	=132	=132	=132	=132
2E\	-tre	1r	.	2c\	-li-	1r	.
2F\	fi-	.	.	2d\	-o-	.	.
2G\	-li-	2r	.	2B\	-que	2r	.
2G\	-o-	2B\	qui	[2e\	pro-	2g/	qui
=133	=133	=133	=133	=133	=133	=133	=133
2A\	-que	2c\	ex	4e\]	.	2e/	ex
.	.	.	.	4d\	.	.	.
2F\	pro-	2d\	pa-	2.d\	-ce-	2f/	pa-
1E	-ce-	1e	-tre	.	.	2g/	-tre
.	.	.	.	4B\	.	.	.
.	.	.	.	2c#i\	.	2e/	fi-
=134	=134	=134	=134	=134	=134	=134	=134
2D\	-dit.	2r	.	1d	-dit.	2f/	-li-
2G\	Qui	2B\	fi-	.	.	2g/	-o-
2C/	cum	2c\	-li-	2r	.	2e/	-que
2F\	pa-	2d\	-o-	2A/	Qui	[2a/	pro-
=135	=135	=135	=135	=135	=135	=135	=135
1E	-tre	2B\	-que	2B\	cum	4a/]	.
.	.	.	.	.	.	4g/	.
.	.	2G/	pro-	2c\	pa-	2.g/	-ce-
2r	.	1A	-ce-	2d\	-tre	.	.
.	.	.	.	.	.	4e/	.
2D\	et	.	.	2A/	et	2f#i/	.
=136	=136	=136	=136	=136	=136	=136	=136
2G\	fi-	1G	-dit.	2B\	fi-	1g	-dit.
2E\	-li-	.	.	2c\	-li-	.	.
1D	-o	2r	.	1d	-o	2r	.
.	.	2B\	Qui	.	.	2d/	Qui
=137	=137	=137	=137	=137	=137	=137	=137
1r	.	2c\	cum	1r	.	2e/	cum
.	.	2A/	pa-	.	.	2f/	pa-
2r	.	2G/	-tre	2r	.	2g/	-tre
2G\	si-	2B\	et	2B\	si-	2d/	et
=138	=138	=138	=138	=138	=138	=138	=138
2E\	-mul	2G/	fi-	2c\	-mul	2e/	fi-
2D\	a-	2A/	-li-	2d\	a-	2f/	-li-
1E	-do-	1G	-o	2B\	-do-	1g	-o
.	.	.	.	[2e\	-ra-	.	.
=139	=139	=139	=139	=139	=139	=139	=139
1F	-ra-	2r	.	4e\]	.	1r	.
.	.	.	.	4c\	.	.	.
.	.	2A/	si-	2d\	.	.	.
1E	-tur	2B\	-mul	1e	-tur	2r	.
.	.	2c\	a-	.	.	2e/	si-
=140	=140	=140	=140	=140	=140	=140	=140
0r	.	2A/	-do-	0r	.	2f/	-mul
.	.	2B\	.	.	.	2g/	a-
.	.	2c\	-ra-	.	.	2e/	-do-
.	.	2A/	.	.	.	[2a/	-ra-
=141	=141	=141	=141	=141	=141	=141	=141
1r	.	1B	.	1r	.	4a/]	.
.	.	.	.	.	.	4f#i/	.
.	.	.	.	.	.	2g#i/	.
2r	.	1A	-tur	2r	.	1a	-tur
2A\	et	.	.	2c\	et	.	.
=142	=142	=142	=142	=142	=142	=142	=142
2B\	con-	0r	.	2d\	con-	0r	.
1c	-glo-	.	.	1e	-glo-	.	.
2B\	-ri-	.	.	2d\	-ri-	.	.
=143	=143	=143	=143	=143	=143	=143	=143
2A\	-fi-	1r	.	2c\	-fi-	1r	.
2G\	.	.	.	2B\	-ca-	.	.
3A\V	-ca-	2r	.	1A	-tur	2r	.
3D\	.	.	.	.	.	.	.
.	.	2d\	et	.	.	2f/	et
3F\Z	.	.	.	.	.	.	.
=144	=144	=144	=144	=144	=144	=144	=144
2E\	.	2e\	con-	0r	.	2g/	con-
2D\	-tur	1f	-glo-	.	.	1a	-glo-
1r	.	.	.	.	.	.	.
.	.	2e\	-ri-	.	.	2g/	-ri-
=145	=145	=145	=145	=145	=145	=145	=145
0r	.	2d\	-fi-	1r	.	2f/	-fi-
.	.	2c#i\	-ca-	.	.	2e/	-ca-
.	.	1d	-tur	2r	.	1d	-tur
.	.	.	.	[2d\	qui	.	.
=146	=146	=146	=146	=146	=146	=146	=146
1G	qui	0r	.	2d\]	.	0r	.
.	.	.	.	2d\	lo-	.	.
2G\	lo-	.	.	2e\	-cu-	.	.
2A\	-cu-	.	.	2f\	-tus	.	.
=147	=147	=147	=147	=147	=147	=147	=147
2B\	-tus	0r	.	2.g\	est	1r	.
2.c\	est	.	.	.	.	.	.
.	.	.	.	4f\	.	.	.
.	.	.	.	4e\	.	2r	.
4B\	.	.	.	4d\	.	.	.
2G\	.	.	.	[2e\	per	[2g/	qui
=148	=148	=148	=148	=148	=148	=148	=148
2r	.	1c	qui	4e\]	.	2g/]	.
.	.	.	.	4d\	.	.	.
2C/	per	.	.	4c\	.	2g/	lo-
.	.	.	.	4B\	.	.	.
2F\	pro-	2c\	lo-	2A/	pro-	2a/	-cu-
2D\	.	2d\	-cu-	[2d\	-phe-	2b\	-tus
=149	=149	=149	=149	=149	=149	=149	=149
1A	-phe-	2e\	-tus	2d\]	.	2.cc\	est
.	.	2.f\	est	2c#i\	.	.	.
.	.	.	.	.	.	4b\	.
[1D	-tas.	.	.	1d	-tas.	4a/	.
.	.	4e\	.	.	.	4g/	.
.	.	4d\	.	.	.	[2a/	per
.	.	4c\	.	.	.	.	.
=150	=150	=150	=150	=150	=150	=150	=150
1D]	.	2.d\	per	0r	.	4a/]	.
.	.	.	.	.	.	4g/	.
.	.	.	.	.	.	4f/	.
.	.	4c\	.	.	.	4e/	.
1r	.	4B\	.	.	.	2d/	pro-
.	.	4A/	.	.	.	.	.
.	.	2G/	pro-	.	.	[2g/	-phe-
=151	=151	=151	=151	=151	=151	=151	=151
0r	.	1A	-phe-	1r	.	2g/]	.
.	.	.	.	.	.	2f#i/	.
.	.	1G	-tas.	2r	.	1g	-tas.
.	.	.	.	2d\	Et	.	.
=152	=152	=152	=152	=152	=152	=152	=152
2G\	Et	0r	.	2e\	u-	0r	.
2A\	u-	.	.	2c\	-nam,	.	.
2F\	-nam,	.	.	2d\	sanc-	.	.
2G\	sanc-	.	.	[2e\	-tam	.	.
=153	=153	=153	=153	=153	=153	=153	=153
2A\	-tam	0r	.	2e\]	.	1r	.
2A\	ca-	.	.	2c\	ca-	.	.
2F\	-tho-	.	.	2d\	-tho-	2r	.
2E\	-li-	.	.	2e\	-li-	2g/	Et
=154	=154	=154	=154	=154	=154	=154	=154
2F\	-cam	2A/	Et	2A/	-cam	2a/	u-
2D\	et	2B\	u-	2d\	et	2f/	-nam,
2E\	a-	2G/	-nam,	2c\	a-	2g/	sanc-
2F\	-po-	2c\	sanc-	2A/	-po-	[2a/	-tam
=155	=155	=155	=155	=155	=155	=155	=155
2F\	-sto-	2A/	-tam	2c\	-sto-	2a/]	.
2F\	-li-	2A/	ca-	2d\	-li-	2f/	ca-
2E\	-cam	2G/	-tho-	2e\	-cam	2g/	-tho-
2D\	ec-	2F/	-li-	2A/	ec-	2a/	-li-
=156	=156	=156	=156	=156	=156	=156	=156
2G\	-cle-	2G/	-cam	2B\	-cle-	2d/	-cam
2E\	-si-	2G/	et	2c\	-si-	2g/	et
1D	-am.	2A/	a-	1d	-am.	2f/	a-
.	.	2B\	-po-	.	.	2d/	-po-
=157	=157	=157	=157	=157	=157	=157	=157
0r	.	2B\	-sto-	0r	.	2f/	-sto-
.	.	2B\	-li-	.	.	2g/	-li-
.	.	2A/	-cam	.	.	2a/	-cam
.	.	2B\	ec-	.	.	2d/	ec-
=158	=158	=158	=158	=158	=158	=158	=158
1r	.	2G/	-cle-	1r	.	2e/	-cle-
.	.	2A/	-si-	.	.	2f/	-si-
2r	.	1G	-am.	2B\	Con-	1g	-am.
2E\	Con-	.	.	2c\	-fi-	.	.
=159	=159	=159	=159	=159	=159	=159	=159
2F\	-fi-	0r	.	1d	-te-	0r	.
1G	-te-	.	.	.	.	.	.
.	.	.	.	1d	-or	.	.
2D\	-or	.	.	.	.	.	.
=160	=160	=160	=160	=160	=160	=160	=160
2G\	u-	1r	.	2d\	u-	1r	.
2G\	-num	.	.	2e\	-num	.	.
2A\	bap-	2r	.	2c\	bap-	2e/	Con-
2F\	-tis-	2A/	Con-	2d\	-tis-	2f/	-fi-
=161	=161	=161	=161	=161	=161	=161	=161
1E	-ma,	2B\	-fi-	1e	-ma,	1g	-te-
.	.	1c	-te-	.	.	.	.
2r	.	.	.	2r	.	1g	-or
2E\	in	2G/	-or	2e\	in	.	.
=162	=162	=162	=162	=162	=162	=162	=162
2E\	re-	2c\	u-	2e\	re-	2g/	u-
2F\	-mis-	2A/	-num	2c\	-mis-	2a/	-num
2D\	-si-	2B\	bap-	2d\	-si-	2f/	bap-
2E\	-o-	2G/	-tis-	2B\	-o-	2g/	-tis-
=163	=163	=163	=163	=163	=163	=163	=163
2F\	-nem	1c	-ma,	2A/	-nem	1a	-ma,
2F\	pec-	.	.	2A/	pec-	.	.
2G\	-ca-	2r	.	2B\	-ca-	2r	.
2A\	-to-	2A/	in	2c\	-to-	2a/	in
=164	=164	=164	=164	=164	=164	=164	=164
1D	-rum.	2A/	re-	1d	-rum.	2a/	re-
.	.	2d\	-mis-	.	.	2f/	-mis-
1r	.	2B\	-si-	1r	.	2g/	-si-
.	.	2c\	-o-	.	.	2e/	-o-
=165	=165	=165	=165	=165	=165	=165	=165
0r	.	2d\	-nem	0r	.	2d/	-nem
.	.	2B\	pec-	.	.	2d/	pec-
.	.	2c\	-ca-	.	.	2e/	-ca-
.	.	2A/	-to-	.	.	2f/	-to-
=166	=166	=166	=166	=166	=166	=166	=166
1G	Et	0G	-rum.	1d	Et	1g	-rum.
1E	ex-	.	.	1e	ex-	1r	.
=167	=167	=167	=167	=167	=167	=167	=167
1F	-spec-	1r	.	1d	-spec-	0r	.
1G	-to	1B	Et	1B	-to	.	.
=168	=168	=168	=168	=168	=168	=168	=168
1E	re-	1c	ex-	2r	.	1g	Et
.	.	.	.	2e\	re-	.	.
2F\	-sur-	1A	-pec-	2d\	-sur-	1a	ex-
2F\	-rec-	.	.	2d\	-rec-	.	.
=169	=169	=169	=169	=169	=169	=169	=169
2E\	-ti-	1B	-to	2e\	-ti-	1g	-pec-
2E\	-o-	.	.	2.g\	-o-	.	.
1C	-nem	2.c\	re-	.	.	1e	-to
.	.	.	.	4f\	.	.	.
.	.	.	.	[2e\	.	.	.
.	.	4d\	-sur-	.	.	.	.
=170	=170	=170	=170	=170	=170	=170	=170
2r	.	2e\	-rec-	2e\]	.	2r	.
2D\	mor-	2f\	-ti-	4d\	.	2a/	re-
.	.	.	.	4c\	.	.	.
1E	-tu-	1e	-o-	1B	.	2g/	-sur-
.	.	.	.	.	.	2g/	-rec-
=171	=171	=171	=171	=171	=171	=171	=171
4F\	-o-	1c	-nem	2A/	-nem	2a/	-ti-
4G\	.	.	.	.	.	.	.
4A\	.	.	.	2.a\	mor-	2.cc\	-o-
4B\	.	.	.	.	.	.	.
2c\	.	1r	.	.	.	.	.
.	.	.	.	4g\	-tu-	4b\	.
2d\	.	.	.	[2f\	-o-	[2a/	.
=172	=172	=172	=172	=172	=172	=172	=172
1D	.	1r	.	2f\]	.	2a/]	.
.	.	.	.	4e\	.	4g/	.
.	.	.	.	4d\	.	4f/	.
1A	.	2r	.	4c#i\	.	1e	.
.	.	.	.	4d\	.	.	.
.	.	[2A/	mor-	4e\	.	.	.
.	.	.	.	4c#i\	.	.	.
=173	=173	=173	=173	=173	=173	=173	=173
[0D	-rum.	2A/]	.	0d	-rum.	2d/	-nem
.	.	2B\	.	.	.	2.dd\	mor-
.	.	2A/	-tu-	.	.	.	.
.	.	.	.	.	.	4cc\	-tu-
.	.	[2d\	-o-	.	.	[2b\	-o-
=174	=174	=174	=174	=174	=174	=174	=174
0D]	.	2d\]	.	1r	.	2b\]	.
.	.	4c\	.	.	.	4a/	.
.	.	4B\	.	.	.	4g/	.
.	.	1A	.	1d	Et	4f#i/	.
.	.	.	.	.	.	4g/	.
.	.	.	.	.	.	4a/	.
.	.	.	.	.	.	4f#i/	.
=175	=175	=175	=175	=175	=175	=175	=175
2r	.	1G	-rum.	1d	vi-	0g	-rum.
2G\	Et	.	.	.	.	.	.
1G	vi-	1r	.	1B	-tam	.	.
=176	=176	=176	=176	=176	=176	=176	=176
1.E	-tam	1.g	Et	1.e	ven-	1r	.
.	.	.	.	.	.	1g	Et
2F\	ven-	4f\	.	4d\	.	.	.
.	.	4e\	.	4c\	.	.	.
=177	=177	=177	=177	=177	=177	=177	=177
1G	-tu-	1d	vi-	1B	-tu-	1g	vi-
1A	-ri,	1c	-tam	1c	-ri	1e	-tam
=178	=178	=178	=178	=178	=178	=178	=178
2r	.	2r	.	2d\	se-	1.a	ven-
2A\	ven-	2c\	ven-	2e\	.	.	.
2F\	-tu-	2d\	-tu-	2f\	.	.	.
2E\	-ri	2e\	-ri	[2g\	.	4g/	.
.	.	.	.	.	.	4f/	.
=179	=179	=179	=179	=179	=179	=179	=179
2G\	se-	2B\	se-	4g\]	.	1e	-tu-
.	.	.	.	4f\	.	.	.
2A\	.	2c\	-cu-	1e	.	.	.
1F	-cu-	1A	-li,	.	.	1f	-ri
.	.	.	.	2d\	-cu-	.	.
=180	=180	=180	=180	=180	=180	=180	=180
2E\	-li,	2r	.	0e	-li	2g/	se-
2A\	se-	2c\	ven-	.	.	2a/	.
2G\	.	2B\	-tu-	.	.	2b\	.
[2A\	.	2A/	-ri	.	.	[2cc\	.
=181	=181	=181	=181	=181	=181	=181	=181
2A\]	.	2c\	se-	0r	.	4cc\]	.
.	.	.	.	.	.	4b\	.
2D\	-cu-	2d\	.	.	.	1a	.
1E	-li	1B	-cu-	.	.	.	.
.	.	.	.	.	.	2g#i/	-cu-
=182	=182	=182	=182	=182	=182	=182	=182
!	!	!	!	!	!	!LO:N:vis=0	!
*M3/1	*	*M3/1	*	*M3/1	*	*	*
*met(3)	*	*met(3)	*	*met(3)	*	*	*
1r	.	0A	-li	0e	A-	0.a	-li
0A	A-	.	.	.	.	.	.
.	.	1r	.	1c	.	.	.
=183	=183	=183	=183	=183	=183	=183	=183
!	!	!	!	!	!	!LO:N:vis=0	!
1F	.	1A	A-	1d	.	0.r	.
1G	.	1B	.	0e	.	.	.
[1A	.	1c	.	.	.	.	.
=184	=184	=184	=184	=184	=184	=184	=184
*	*	*	*	*	*	*M3/1	*
*	*	*	*	*	*	*met(3)	*
1A]	.	0A	.	1c	.	0a	A-
0D	.	.	.	1.d	.	.	.
.	.	1B	.	.	.	1f	.
.	.	.	.	2c\	.	.	.
=185	=185	=185	=185	=185	=185	=185	=185
1E	.	1G	.	1B	.	1g	.
0F	.	1.c	.	1A	.	0a	.
.	.	.	.	1c	.	.	.
.	.	2A/	.	.	.	.	.
=186	=186	=186	=186	=186	=186	=186	=186
1D	.	2B\	.	1d	.	1f	.
.	.	2A/	.	.	.	.	.
1C	.	1c	.	1.e	.	1.g	.
1r	.	1G	.	.	.	.	.
.	.	.	.	2f\	.	2f/	.
=187	=187	=187	=187	=187	=187	=187	=187
1C	.	1c	.	1g	.	1e	.
0D	.	1A	.	1.f	.	1d	.
.	.	1d	.	.	.	1f	.
.	.	.	.	2e\	.	.	.
=188	=188	=188	=188	=188	=188	=188	=188
1E	.	1B	.	1.e	.	1g	.
1F	.	1A	.	.	.	1.a	.
.	.	.	.	2c\	.	.	.
1D	.	1f	.	1d	.	.	.
.	.	.	.	.	.	2b\	.
=189	=189	=189	=189	=189	=189	=189	=189
1A	.	0e	.	1e	.	1cc	.
1G	.	.	.	1g	.	1.b	.
1A	.	[1c	.	1f	.	.	.
.	.	.	.	.	.	2a/	.
=190	=190	=190	=190	=190	=190	=190	=190
1c	.	1c]	.	1.e	.	1.a	.
0B	.	1d	.	.	.	.	.
.	.	.	.	2d\	.	2f#i/	.
.	.	1B	.	2d\	.	1g#i	.
.	.	.	.	2c\	.	.	.
=191	=191	=191	=191	=191	=191	=191	=191
0A	-men,	1c	-men,	[0.el	-men.	1a	-men,
.	.	1.e	a-	.	.	1cc	a-
1G	a-	.	.	.	.	1b	.
.	.	2d\	.	.	.	.	.
=192	=192	=192	=192	=192	=192	=192	=192
1A	.	1c	.	0.e_	.	1.a	.
0E	.	0B	.	.	.	.	.
.	.	.	.	.	.	2g#i/	.
.	.	.	.	.	.	2g#i/	.
.	.	.	.	.	.	2f#i/	.
=193	=193	=193	=193	=193	=193	=193	=193
0.AAl	-men.	0.Al	-men.	0.e]	.	0.al	-men.
==	==	==	==	==	==	==	==
*-	*-	*-	*-	*-	*-	*-	*-
!!!RDF**kern: l=long note in original notation
!!!RDF**kern: i=editorial accidental
!!!RDF**kern: V=start of tuplet marker
!!!RDF**kern: Z=end of tuplet marker
!!!ENC: Jesse Rodin; Victoria Chang 2011/04/06/; JR 2013/02 (text)
!!!END: 2013/03/08/
!!!SMS: Davison, Missa sine nomine
!!!EED:	Jesse Rodin
!!!EEV:	2013/03/08/
!!attribution-level@Jos: 1 (secure)
!!!ONB:	Translated from MusicXML and edited on 2013/03/08/ by Craig Sapp
!!muse2ps: T^@{OPR}^u^@{ONM}{. }@{OTL}^C^@{COM}\n@{SCT}^i2I100v85,90,85,130c92Q16
!!!ONB: April 2013 Concert
